src/assets/svg/icons/github-icon.svg

<svg width="80px" height="80px" viewBox="0 0 101 98" fill="none" xmlns="http://www.w3.org/2000/svg">
<path d="M50.2763 0.422363C22.6655 0.422363 0.276123 22.8078 0.276123 50.4226C0.276123 72.5143 14.6027 91.2564 34.4694 97.8679C36.9682 98.3307 37.8858 96.7833 37.8858 95.4625C37.8858 94.2704 37.8391 90.3313 37.8179 86.1534C23.9074 89.178 20.9723 80.2541 20.9723 80.2541C18.6978 74.4746 15.4207 72.9382 15.4207 72.9382C10.8844 69.8348 15.7626 69.8983 15.7626 69.8983C20.7836 70.2513 23.4275 75.0511 23.4275 75.0511C27.8869 82.6951 35.1243 80.485 37.9775 79.2078C38.4261 75.9758 39.7222 73.7704 41.1519 72.5218C30.0464 71.2571 18.3716 66.9698 18.3716 47.8113C18.3716 42.3526 20.3248 37.892 23.5235 34.3906C23.0043 33.131 21.293 28.0457 24.0078 21.1585C24.0078 21.1585 28.2065 19.8146 37.7615 26.2838C41.7496 25.1756 46.0271 24.6203 50.2763 24.6015C54.5256 24.6203 58.8062 25.1756 62.8022 26.2838C72.3457 19.8146 76.5385 21.1585 76.5385 21.1585C79.26 28.0457 77.5479 33.131 77.0287 34.3906C80.2345 37.892 82.1744 42.3523 82.1744 47.8113C82.1744 67.0153 70.4776 71.2442 59.3438 72.4818C61.1371 74.0335 62.7351 77.0765 62.7351 81.7411C62.7351 88.431 62.6771 93.8155 62.6771 95.4625C62.6771 96.7931 63.577 98.3522 66.1118 97.8613C85.9676 91.2423 100.276 72.5069 100.276 50.4226C100.276 22.8078 77.8899 0.422363 50.2763 0.422363Z" fill="#161614"/>
<path d="M19.0028 71.6489C18.893 71.8971 18.5016 71.9716 18.1459 71.8014C17.7832 71.6383 17.5793 71.2995 17.6969 71.0501C17.8048 70.7944 18.1961 70.723 18.5581 70.8948C18.9216 71.0575 19.1286 71.3995 19.0028 71.6489ZM21.4623 73.8433C21.2239 74.0645 20.7576 73.9618 20.4411 73.6124C20.1141 73.2637 20.0529 72.7979 20.2949 72.5732C20.5408 72.3524 20.9929 72.4555 21.3207 72.8045C21.6478 73.1571 21.7113 73.6202 21.4619 73.8437L21.4623 73.8433ZM23.1497 76.6511C22.843 76.864 22.3419 76.6644 22.0325 76.2197C21.7262 75.7754 21.7262 75.2421 22.0391 75.0284C22.3497 74.8147 22.843 75.0068 23.1567 75.448C23.4626 75.9001 23.4626 76.4334 23.1493 76.6515L23.1497 76.6511ZM26.0029 79.9031C25.7288 80.2051 25.1453 80.1243 24.7179 79.7118C24.281 79.3086 24.1591 78.7365 24.434 78.4341C24.7112 78.1314 25.2982 78.2165 25.7288 78.6255C26.1629 79.0279 26.2955 79.6043 26.0033 79.9031H26.0029ZM29.6906 81.0011C29.5703 81.3925 29.0079 81.5705 28.4417 81.4042C27.8762 81.2329 27.506 80.7741 27.6201 80.3784C27.7378 79.9843 28.3025 79.7988 28.873 79.9768C29.4377 80.1474 29.8087 80.6027 29.691 81.0011H29.6906ZM33.8881 81.4666C33.9023 81.8791 33.4219 82.2211 32.8274 82.2285C32.2294 82.2415 31.7459 81.9078 31.7396 81.5023C31.7396 81.0858 32.209 80.747 32.8066 80.7372C33.4011 80.7254 33.8881 81.0568 33.8881 81.4666ZM38.0111 81.3086C38.0825 81.7109 37.6692 82.1242 37.079 82.234C36.4986 82.3399 35.9614 82.0917 35.8873 81.6929C35.8151 81.2803 36.2363 80.8674 36.8155 80.7603C37.4069 80.6576 37.9359 80.8996 38.0111 81.3086Z" fill="#161614"/>
</svg>

<svg xmlns="http://www.w3.org/2000/svg" width="80" height="80" viewBox="0 0 101 98" fill="#161614" xmlns:v="https://vecta.io/nano"><path d="M50.276.422c-27.611 0-50 22.385-50 50 0 22.092 14.327 40.834 34.193 47.445 2.499.463 3.416-1.085 3.416-2.405l-.068-9.309c-13.911 3.025-16.846-5.899-16.846-5.899-2.274-5.779-5.552-7.316-5.552-7.316-4.536-3.103.342-3.04.342-3.04 5.021.353 7.665 5.153 7.665 5.153 4.459 7.644 11.697 5.434 14.55 4.157.449-3.232 1.745-5.437 3.174-6.686-11.105-1.265-22.78-5.552-22.78-24.71 0-5.459 1.953-9.919 5.152-13.421-.519-1.26-2.23-6.345.484-13.232 0 0 4.199-1.344 13.754 5.125 3.988-1.108 8.266-1.663 12.515-1.682 4.249.019 8.53.574 12.526 1.682 9.543-6.469 13.736-5.125 13.736-5.125 2.722 6.887 1.009 11.973.49 13.232 3.206 3.501 5.146 7.962 5.146 13.421 0 19.204-11.697 23.433-22.831 24.671 1.793 1.552 3.391 4.595 3.391 9.259l-.058 13.721c0 1.331.9 2.89 3.435 2.399 19.856-6.619 34.164-25.354 34.164-47.439 0-27.615-22.386-50-50-50z"/><path d="M19.003 71.649c-.11.248-.501.323-.857.153-.363-.163-.567-.502-.449-.751.108-.256.499-.327.861-.155.364.163.57.505.445.754zm2.459 2.194c-.238.221-.705.118-1.021-.231-.327-.349-.388-.814-.146-1.039s.698-.118 1.026.231.391.816.141 1.039h0zm1.687 2.808c-.307.213-.808.013-1.117-.431s-.306-.978.007-1.191.804-.022 1.118.42c.306.452.306.985-.007 1.204h0zm2.853 3.252c-.274.302-.858.221-1.285-.191-.437-.403-.559-.975-.284-1.278s.864-.218 1.295.191c.434.402.567.979.274 1.278h0zm3.688 1.098c-.12.391-.683.569-1.249.403-.566-.171-.936-.63-.822-1.026s.682-.58 1.253-.402c.565.171.936.626.818 1.024h0zm4.198.466c.014.412-.466.755-1.061.762-.598.013-1.081-.321-1.088-.726 0-.416.469-.755 1.067-.765s1.081.32 1.081.729zm4.123-.158c.071.402-.342.816-.932.925-.58.106-1.118-.142-1.192-.541-.072-.413.349-.825.928-.933.591-.103 1.12.139 1.196.548z"/></svg>
